svg/monochrome/android.svg

<svg xmlns="http://www.w3.org/2000/svg" viewBox="0 0 24 24"><path class="uim-primary" d="M14.97535,3.01886l.95982-1.73159a.19342.19342,0,0,0-.33833-.18756l-.97045,1.75078a6.54141,6.54141,0,0,0-5.25275,0L8.40316,1.09971a.19342.19342,0,0,0-.33833.18756l.95985,1.7316A5.54614,5.54614,0,0,0,5.93152,7.89522h12.137A5.54615,5.54615,0,0,0,14.97535,3.01886ZM5.93143,17.17146a1.46713,1.46713,0,0,0,1.46713,1.46713h.9736v3.00095a1.36046,1.36046,0,1,0,2.72091,0V18.63859h1.81386v3.00095a1.36046,1.36046,0,1,0,2.72091,0V18.63859h.97364a1.46713,1.46713,0,0,0,1.46713-1.46713V8.37532H5.93143ZM4.06415,8.14191A1.362,1.362,0,0,0,2.7037,9.50237v5.66846a1.36046,1.36046,0,1,0,2.72091,0V9.50237A1.362,1.362,0,0,0,4.06415,8.14191Zm15.8717,0a1.362,1.362,0,0,0-1.36046,1.36046v5.66846a1.36046,1.36046,0,1,0,2.72091,0V9.50237A1.362,1.362,0,0,0,19.93585,8.14191Z"/><circle cx="9.199" cy="5.168" r=".507" class="uim-tertiary"/><circle cx="14.801" cy="5.168" r=".507" class="uim-tertiary"/></svg>

<svg xmlns="http://www.w3.org/2000/svg" viewBox="0 0 24 24"><path class="uim-primary" d="m14.975 3.019.96-1.732a.193.193 0 0 0-.338-.187l-.97 1.75a6.541 6.541 0 0 0-5.253 0l-.97-1.75a.193.193 0 0 0-.34.187l.96 1.732a5.546 5.546 0 0 0-3.092 4.876h12.137a5.546 5.546 0 0 0-3.094-4.876ZM5.931 17.17A1.467 1.467 0 0 0 7.4 18.64h.973v3a1.36 1.36 0 1 0 2.721 0v-3h1.814v3a1.36 1.36 0 1 0 2.72 0v-3h.974a1.467 1.467 0 0 0 1.468-1.468V8.375H5.93Zm-1.867-9.03a1.362 1.362 0 0 0-1.36 1.361v5.669a1.36 1.36 0 1 0 2.72 0V9.502a1.362 1.362 0 0 0-1.36-1.36Zm15.872 0a1.362 1.362 0 0 0-1.36 1.361v5.669a1.36 1.36 0 1 0 2.72 0V9.502a1.362 1.362 0 0 0-1.36-1.36Z"/><circle cx="9.199" cy="5.168" r=".507" class="uim-tertiary"/><circle cx="14.801" cy="5.168" r=".507" class="uim-tertiary"/></svg>
